X:19
T:The Snappy Reel
R:reel
C:John Campbell
D:John Campbell, Cape Breton Violin Music (1975-2006)
Z:Paul Stewart Cranford (P.S.C.), <http://www.cranfordpub.com>
L:1/8
M:C|
Q:333
K:D
A,|D2 DB AFEF|DEFA B2 Bd|ABdA B2 eB|AFED EB,B,E|
D2 DB AFEF|DEFA B2 Bd|ABde f2 ec|dBAG FDD:|
|:A|d2 df afef|defd eBBe|dBAF DEFA|BFAF EB,B,A|
d2 df afef|defd eBBe|dBAF DEFA|BeAF D2 D:|
